src/icons/group.svg

<svg xmlns="http://www.w3.org/2000/svg"  viewBox="0 0 50 50" width="32px" height="32px"><path d="M 17 2 C 14.238281 2 12 4.238281 12 7 C 12 9.761719 14.238281 12 17 12 C 19.761719 12 22 9.761719 22 7 C 22 4.238281 19.761719 2 17 2 Z M 32.8125 2 C 30.050781 2 27.8125 4.238281 27.8125 7 C 27.8125 9.761719 30.050781 12 32.8125 12 C 35.574219 12 37.8125 9.761719 37.8125 7 C 37.8125 4.238281 35.574219 2 32.8125 2 Z M 17 13 C 15.886719 13 14.855469 13.257813 13.9375 13.71875 C 15.8125 15.183594 17.03125 17.472656 17.03125 20.03125 C 17.03125 22.535156 15.871094 24.78125 14.0625 26.25 C 15.519531 27.007813 16.792969 28.058594 17.78125 29.375 C 17.304688 28.351563 17.03125 27.230469 17.03125 26.03125 C 17.03125 22.058594 19.949219 18.742188 23.75 18.125 C 22.945313 15.148438 20.253906 13 17 13 Z M 32.8125 13 C 29.574219 13 26.878906 15.132813 26.0625 18.09375 C 29.980469 18.609375 33.03125 21.972656 33.03125 26.03125 C 33.03125 27.152344 32.792969 28.21875 32.375 29.1875 C 33.351563 27.953125 34.574219 26.9375 35.96875 26.21875 C 34.171875 24.75 33.03125 22.527344 33.03125 20.03125 C 33.03125 17.519531 34.183594 15.28125 36 13.8125 C 35.042969 13.300781 33.984375 13 32.8125 13 Z M 9.03125 14.03125 C 5.71875 14.03125 3.03125 16.71875 3.03125 20.03125 C 3.03125 23.34375 5.71875 26.03125 9.03125 26.03125 C 12.34375 26.03125 15.03125 23.34375 15.03125 20.03125 C 15.03125 16.71875 12.34375 14.03125 9.03125 14.03125 Z M 41.03125 14.03125 C 37.71875 14.03125 35.03125 16.71875 35.03125 20.03125 C 35.03125 23.34375 37.71875 26.03125 41.03125 26.03125 C 44.34375 26.03125 47.03125 23.34375 47.03125 20.03125 C 47.03125 16.71875 44.34375 14.03125 41.03125 14.03125 Z M 25.03125 20.03125 C 21.71875 20.03125 19.03125 22.71875 19.03125 26.03125 C 19.03125 29.34375 21.71875 32.03125 25.03125 32.03125 C 28.34375 32.03125 31.03125 29.34375 31.03125 26.03125 C 31.03125 22.71875 28.34375 20.03125 25.03125 20.03125 Z M 9 27 C 4.039063 27 0 31.035156 0 36 L 0 39.5 C 0 39.8125 0.152344 40.125 0.40625 40.3125 C 0.636719 40.488281 2.84375 42 9 42 C 11.132813 42 12.792969 41.808594 14.0625 41.5625 C 14.191406 38.488281 15.566406 35.734375 17.71875 33.8125 C 16.742188 29.898438 13.210938 27 9 27 Z M 41 27 C 36.804688 27 33.273438 29.886719 32.28125 33.78125 C 34.464844 35.707031 35.875 38.492188 36 41.59375 C 37.261719 41.835938 38.898438 42 41 42 C 47.15625 42 49.363281 40.488281 49.59375 40.3125 C 49.847656 40.125 50 39.816406 50 39.5 L 50 36 C 50 31.035156 45.964844 27 41 27 Z M 25.03125 33.03125 C 20.070313 33.03125 16.03125 37.066406 16.03125 42.03125 L 16.03125 45.53125 C 16.03125 45.847656 16.183594 46.125 16.4375 46.3125 C 16.667969 46.488281 18.875 48.03125 25.03125 48.03125 C 31.1875 48.03125 33.394531 46.488281 33.625 46.3125 C 33.878906 46.125 34.03125 45.84375 34.03125 45.53125 L 34.03125 42.03125 C 34.03125 37.066406 29.996094 33.03125 25.03125 33.03125 Z"/></svg>

<svg role="img" viewBox="0 0 50 50" xmlns="http://www.w3.org/2000/svg"><path d="M17 2a5 5 0 1 0 0 10 5 5 0 0 0 0-10m15.813 0a5 5 0 1 0-.001 10 5 5 0 0 0 0-10M17 13a6.776 6.776 0 0 0-3.062.719 8.013 8.013 0 0 1 3.093 6.312c0 2.504-1.16 4.75-2.968 6.219a10.922 10.922 0 0 1 3.718 3.125 7.867 7.867 0 0 1-.75-3.344c0-3.972 2.918-7.289 6.719-7.906C22.945 15.148 20.254 13 17 13m15.813 0c-3.239 0-5.934 2.133-6.75 5.094 3.917.515 6.968 3.879 6.968 7.937a7.95 7.95 0 0 1-.656 3.157 11.06 11.06 0 0 1 3.594-2.97 7.962 7.962 0 0 1-2.938-6.187A7.968 7.968 0 0 1 36 13.813 6.671 6.671 0 0 0 32.813 13M9.03 14.031c-3.312 0-6 2.688-6 6a6 6 0 1 0 6-6m32 0c-3.312 0-6 2.688-6 6a6 6 0 1 0 6-6m-16 6c-3.312 0-6 2.688-6 6a6 6 0 1 0 6-6M9 27c-4.96 0-9 4.035-9 9v3.5c0 .313.152.625.406.813C.636 40.488 2.844 42 9 42c2.133 0 3.793-.191 5.063-.437a10.976 10.976 0 0 1 3.656-7.75C16.742 29.898 13.21 27 9 27m32 0c-4.195 0-7.727 2.887-8.719 6.781A10.997 10.997 0 0 1 36 41.594c1.262.242 2.898.406 5 .406 6.156 0 8.363-1.512 8.594-1.687A1.02 1.02 0 0 0 50 39.5V36c0-4.965-4.035-9-9-9m-15.969 6.031c-4.96 0-9 4.035-9 9v3.5c0 .317.153.594.407.782.23.175 2.437 1.718 8.593 1.718 6.157 0 8.364-1.543 8.594-1.718a.967.967 0 0 0 .406-.782v-3.5c0-4.965-4.035-9-9-9"/></svg>
